packages/foundations/assets/icons/functional/images/file/image_24.svg

<svg width="24" height="24" viewBox="0 0 24 24" fill="none" xmlns="http://www.w3.org/2000/svg">
<g clip-path="url(#clip0_185_958)">
<path fill-rule="evenodd" clip-rule="evenodd" d="M18.5 3C19.8255 3 21.0013 4.18505 21 5.5V18.5C21 19.8255 19.7707 21.0052 18.5 21H5.5C4.17452 21 3.00528 19.8095 3 18.5V5.5C3 4.17452 4.18402 3.00435 5.5 3H18.5ZM16 13.415L12.7071 16.7071C12.4332 16.981 12.0292 17.0695 11.6704 16.9442L8.071 15.154L5 17.201V18.5C5 18.7455 5.2625 18.9997 5.5 19.0001H18.5C18.7455 19.0001 19.0069 18.7486 19.0001 18.5V16.4142L16 13.415ZM5.5 4.99997C5.25454 4.99997 5.00032 5.2643 4.99994 5.5V14.797L7.4453 13.1679C7.70656 12.9938 8.03196 12.9538 8.32426 13.054L11.802 14.782L15.2929 11.2929C15.6534 10.9324 16.2206 10.9047 16.6129 11.2097L19 13.586V5.5C19 5.25454 18.7401 5.00471 18.5 4.99997H5.5ZM9 7C10.1047 7 11 7.89549 11 9C11 10.1045 10.1047 11 9 11C7.89532 11 7 10.1045 7 9C7 7.89549 7.89532 7 9 7Z" fill="#1A1C1F"/>
</g>
<defs>
<clipPath id="clip0_185_958">
<rect width="24" height="24" fill="white"/>
</clipPath>
</defs>
</svg>

<svg xmlns="http://www.w3.org/2000/svg" width="24" height="24" fill="none"><g clip-path="url(#a)"><path fill="#1A1C1F" fill-rule="evenodd" d="M18.5 3c1.326 0 2.501 1.185 2.5 2.5v13c0 1.326-1.23 2.505-2.5 2.5h-13c-1.325 0-2.495-1.19-2.5-2.5v-13C3 4.175 4.184 3.004 5.5 3zM16 13.415l-3.293 3.292a1 1 0 0 1-1.037.237l-3.599-1.79L5 17.201V18.5c0 .245.263.5.5.5h13c.245 0 .507-.251.5-.5v-2.086zM5.5 5c-.245 0-.5.264-.5.5v9.297l2.445-1.63a1 1 0 0 1 .88-.113l3.477 1.728 3.49-3.49a1 1 0 0 1 1.32-.082L19 13.586V5.5c0-.245-.26-.495-.5-.5zM9 7a2 2 0 1 1 0 4 2 2 0 0 1 0-4" clip-rule="evenodd"/></g><defs><clipPath id="a"><path fill="#fff" d="M0 0h24v24H0z"/></clipPath></defs></svg>
